X: 7630
T: Cois Na hAbhna
R: slide
M: 12/8
K: Gmajor
B2B BAB d2c A3|DFA cBc e2d B3|B2B BAB d2c A3|DFA DFA B2A G3:|
d^cd gdB =c2B A3|DFA ~f3 e2d B3|d^cd gdB =c2B A3|fed cAF DBA G3:|

